assets/img/braze_icons/line-chart-down-01.svg

<svg fill="none" height="24" viewBox="0 0 24 24" width="24" xmlns="http://www.w3.org/2000/svg"><g clip-rule="evenodd" fill="#801ed7" fill-rule="evenodd"><path d="m3.00001 2c.55228 0 1 .44772 1 1v16.4c0 .2965.00077.4588.0103.5754.00038.0046.00076.009.00114.0131.00415.0004.00855.0008.01319.0012.11658.0095.27884.0103.57537.0103h16.39999c.5523 0 1 .4477 1 1s-.4477 1-1 1h-16.43184c-.2524 0-.49821.0001-.70638-.0169-.2286-.0187-.49833-.0628-.76976-.2011-.37632-.1917-.68228-.4977-.87403-.874-.1383-.2714-.18236-.5412-.20104-.7698-.01701-.2081-.01698-.4539-.01695-.7063l.00001-16.4319c0-.55228.44771-1 1-1z"/><path d="m20.6837 15.7297c.4031-.3776.4237-1.0104.046-1.4134l-3.9188-4.1827c-.0083-.0088-.0179-.0193-.0286-.031-.1024-.11188-.315-.34418-.5977-.47342-.2372-.10848-.4986-.15322-.7584-.12981-.3095.02789-.5873.17626-.721.2477-.0141.00751-.0266.01418-.0373.01976l-3.1229 1.62147-3.81525-4.07202c-.37761-.40303-1.01044-.42363-1.41347-.04602-.40302.37761-.42363 1.01044-.04602 1.41346l3.91884 4.18268c.0083.0088.0179.0193.0286.031.1024.1119.315.3442.5977.4734.2372.1085.4986.1532.7584.1298.3095-.0279.5873-.1762.721-.2477.0141-.0075.0266-.0141.0373-.0197l3.1229-1.6215 3.8153 4.072c.3776.403 1.0104.4237 1.4134.046z"/></g></svg>

<svg width="24" height="24" viewBox="0 0 24 24" fill="none" xmlns="http://www.w3.org/2000/svg">
<path fill-rule="evenodd" clip-rule="evenodd" d="M3.00001 2C3.55229 2 4.00001 2.44772 4.00001 3V19.4C4.00001 19.6965 4.00078 19.8588 4.01031 19.9754C4.01069 19.98 4.01107 19.9844 4.01145 19.9885C4.0156 19.9889 4.02 19.9893 4.02464 19.9897C4.14122 19.9992 4.30348 20 4.60001 20H21C21.5523 20 22 20.4477 22 21C22 21.5523 21.5523 22 21 22L4.56816 22C4.31576 22 4.06995 22.0001 3.86178 21.9831C3.63318 21.9644 3.36345 21.9203 3.09202 21.782C2.7157 21.5903 2.40974 21.2843 2.21799 20.908C2.07969 20.6366 2.03563 20.3668 2.01695 20.1382C1.99994 19.9301 1.99997 19.6843 2 19.4319L2.00001 3C2.00001 2.44772 2.44772 2 3.00001 2Z" fill="#801ED7"/>
<path fill-rule="evenodd" clip-rule="evenodd" d="M20.6837 15.7297C21.0868 15.3521 21.1074 14.7193 20.7297 14.3163L16.8109 10.1336C16.8026 10.1248 16.793 10.1143 16.7823 10.1026C16.6799 9.99072 16.4673 9.75842 16.1846 9.62918C15.9474 9.5207 15.686 9.47596 15.4262 9.49937C15.1167 9.52726 14.8389 9.67563 14.7052 9.74707C14.6911 9.75458 14.6786 9.76125 14.6679 9.76683L11.545 11.3883L7.72975 7.31628C7.35214 6.91325 6.71931 6.89265 6.31628 7.27026C5.91326 7.64787 5.89265 8.2807 6.27026 8.68372L10.1891 12.8664C10.1974 12.8752 10.207 12.8857 10.2177 12.8974C10.3201 13.0093 10.5327 13.2416 10.8154 13.3708C11.0526 13.4793 11.314 13.524 11.5738 13.5006C11.8833 13.4727 12.1611 13.3244 12.2948 13.2529C12.3089 13.2454 12.3214 13.2388 12.3321 13.2332L15.455 11.6117L19.2703 15.6837C19.6479 16.0867 20.2807 16.1074 20.6837 15.7297Z" fill="#801ED7"/>
</svg>
